X:16
T:Gavotte ton double
R:Gavotte
C:trad
A:Bretagne
O:France
M:6/8
L:1/8
Q:1/4=250
K:C
A2GA2c|B2cA3|e2ed2c|BcBA3:|
|:e2fg2g|e2dc3|c2de2d|c2de3|
e2fe2d|c2Bc2c|A2c BcB|A3 A3:||
